Origami/64x64/apps/podcast.svg

<svg width="64" height="64" version="1" xmlns="http://www.w3.org/2000/svg">
 <rect transform="matrix(0,-1,-1,0,0,0)" x="-60" y="-60" width="56" height="56" rx="28" ry="28" style="fill:#02a8f3"/>
 <path d="M 32 4 C 16.488438 4 4 16.488 4 32 C 4 32.113448 4.0112811 32.224113 4.0175781 32.335938 C 4.3691114 17.134181 16.711159 5 32 5 C 47.288841 5 59.630889 17.134181 59.982422 32.335938 C 59.988693 32.224113 60 32.113448 60 32 C 60 16.488 47.511562 4 32 4 z" style="fill:#ffffff;opacity:.1"/>
 <path d="m4.0488281 33c2.078e-4 0.005918 0.0017418 0.011661 0.0019531 0.017578 2.233e-4 -0.005852-2.068e-4 -0.011722 0-0.017578h-0.0019531zm0.0019531 0.017578c-0.0125101 0.327942-0.0507812 0.650348-0.0507812 0.982422 0 0.224037 0.0123968 0.445222 0.0175781 0.667969 0.0120984-0.216663 0.0249213-0.433291 0.0332031-0.650391-2.113e-4 -0.005917-0.0017453-0.01166-0.0019531-0.017578h0.0019531c-2.068e-4 0.005856 2.233e-4 0.011726 0 0.017578 0.5370097 15.033654 12.780789 26.982422 27.949219 26.982422 15.174 0 27.421219-11.958 27.949219-27 0.007796 0.222266 0.020756 0.443039 0.033203 0.664062 0.005121-0.221452 0.017578-0.441334 0.017578-0.664062 0-0.33768-0.039041-0.66528-0.050781-1-0.528 15.042-12.775219 27-27.949219 27-15.16843 0-27.412209-11.948768-27.949219-26.982422z" style="opacity:.2"/>
 <path d="m14 18c0 2.112 0.8982 3 3 3 14.912 0 27 12.088 27 27 0 1.866 1.018 3 3 3 2.04 0 3-1.192 3-3 0-18.226-14.774-33-33-33-1.9948 0-3 0.971-3 3zm0 12c0 2.0548 0.84046 3 3 3 8.2844 0 15 6.7158 15 15 0 1.76602 1.01378 3 3 3 1.938 0 3-1.076 3-3 0-11.598-9.402-21-21-21-1.9372 0-3 0.856-3 3zm6 9c-3.3138 0-6 2.686-6 6s2.6862 6 6 6c3.314 0 6-2.686 6-6s-2.686-6-6-6z" style="opacity:.2"/>
 <path d="m14 17c0 2.112 0.8982 3 3 3 14.912 0 27 12.088 27 27 0 1.866 1.018 3 3 3 2.04 0 3-1.192 3-3 0-18.226-14.774-33-33-33-1.9948 0-3 0.971-3 3zm0 12c0 2.0548 0.84046 3 3 3 8.2844 0 15 6.7158 15 15 0 1.76602 1.01378 3 3 3 1.938 0 3-1.076 3-3 0-11.598-9.402-21-21-21-1.9372 0-3 0.856-3 3zm6 9c-3.3138 0-6 2.686-6 6s2.6862 6 6 6c3.314 0 6-2.686 6-6s-2.686-6-6-6z" style="fill:#ffffff"/>
</svg>

<svg xmlns="http://www.w3.org/2000/svg" width="64" height="64" version="1">
 <rect style="fill:#02a8f3" width="56" height="56" x="-60" y="-60" rx="28" ry="28" transform="matrix(0,-1,-1,0,0,0)"/>
 <path style="opacity:0.1;fill:#ffffff" d="M 32 4 C 16.488438 4 4 16.488 4 32 C 4 32.113448 4.0112811 32.224113 4.0175781 32.335938 C 4.3691114 17.134181 16.711159 5 32 5 C 47.288841 5 59.630889 17.134181 59.982422 32.335938 C 59.988693 32.224113 60 32.113448 60 32 C 60 16.488 47.511562 4 32 4 z"/>
 <path style="opacity:0.2" d="M 4.0488281 33 C 4.0490359 33.005918 4.0505699 33.011661 4.0507812 33.017578 C 4.0510045 33.011726 4.0505744 33.005856 4.0507812 33 L 4.0488281 33 z M 4.0507812 33.017578 C 4.0382711 33.34552 4 33.667926 4 34 C 4 34.224037 4.0123968 34.445222 4.0175781 34.667969 C 4.0296765 34.451306 4.0424994 34.234678 4.0507812 34.017578 C 4.0505699 34.011661 4.0490359 34.005918 4.0488281 34 L 4.0507812 34 C 4.0505744 34.005856 4.0510045 34.011726 4.0507812 34.017578 C 4.5877909 49.051232 16.83157 61 32 61 C 47.174 61 59.421219 49.042 59.949219 34 C 59.957015 34.222266 59.969975 34.443039 59.982422 34.664062 C 59.987543 34.44261 60 34.222728 60 34 C 60 33.66232 59.960959 33.33472 59.949219 33 C 59.421219 48.042 47.174 60 32 60 C 16.83157 60 4.5877909 48.051232 4.0507812 33.017578 z"/>
 <path style="opacity:0.2" d="m 14,18 c 0,2.112 0.8982,3 3,3 14.912,0 27,12.088 27,27 0,1.866 1.018,3 3,3 2.04,0 3,-1.192 3,-3 0,-18.226 -14.774,-33 -33,-33 -1.9948,0 -3,0.971 -3,3 z m 0,12 c 0,2.0548 0.84046,3 3,3 8.2844,0 15,6.7158 15,15 0,1.76602 1.01378,3 3,3 1.938,0 3,-1.076 3,-3 0,-11.598 -9.402,-21 -21,-21 -1.9372,0 -3,0.856 -3,3 z m 6,9 c -3.3138,0 -6,2.686 -6,6 0,3.314 2.6862,6 6,6 3.314,0 6,-2.686 6,-6 0,-3.314 -2.686,-6 -6,-6 z"/>
 <path style="fill:#ffffff" d="m 14,17 c 0,2.112 0.8982,3 3,3 14.912,0 27,12.088 27,27 0,1.866 1.018,3 3,3 2.04,0 3,-1.192 3,-3 0,-18.226 -14.774,-33 -33,-33 -1.9948,0 -3,0.971 -3,3 z m 0,12 c 0,2.0548 0.84046,3 3,3 8.2844,0 15,6.7158 15,15 0,1.76602 1.01378,3 3,3 1.938,0 3,-1.076 3,-3 0,-11.598 -9.402,-21 -21,-21 -1.9372,0 -3,0.856 -3,3 z m 6,9 c -3.3138,0 -6,2.686 -6,6 0,3.314 2.6862,6 6,6 3.314,0 6,-2.686 6,-6 0,-3.314 -2.686,-6 -6,-6 z"/>
</svg>
